build/svg/cmd/sc_tablemodevariable.svg

<?xml version="1.0" encoding="UTF-8" standalone="no"?>
<svg
   xmlns:dc="http://purl.org/dc/elements/1.1/"
   xmlns:cc="http://creativecommons.org/ns#"
   xmlns:rdf="http://www.w3.org/1999/02/22-rdf-syntax-ns#"
   xmlns:svg="http://www.w3.org/2000/svg"
   xmlns="http://www.w3.org/2000/svg"
   xmlns:sodipodi="http://sodipodi.sourceforge.net/DTD/sodipodi-0.dtd"
   xmlns:inkscape="http://www.inkscape.org/namespaces/inkscape"
   viewBox="0 0 16 16"
   version="1.1"
   id="svg12"
   sodipodi:docname="sc_tablemodevariable.svg"
   inkscape:version="0.92.5 (2060ec1f9f, 2020-04-08)"
   inkscape:export-filename="/home/jupiter007/Libreoffice yaru theme fullcolor/build/cmd/sc_tablemodevariable.png"
   inkscape:export-xdpi="96"
   inkscape:export-ydpi="96"><metadata
   id="metadata18">
  <rdf:RDF>
    <cc:Work
       rdf:about="">
      <dc:format>image/svg+xml</dc:format>
      <dc:type
         rdf:resource="http://purl.org/dc/dcmitype/StillImage" />
    </cc:Work>
  </rdf:RDF>
</metadata>
<defs
   id="defs16" />
<sodipodi:namedview
   pagecolor="#ffffff"
   bordercolor="#666666"
   borderopacity="1"
   objecttolerance="10"
   gridtolerance="10"
   guidetolerance="10"
   inkscape:pageopacity="0"
   inkscape:pageshadow="2"
   inkscape:window-width="1920"
   inkscape:window-height="1011"
   id="namedview14"
   showgrid="true"
   inkscape:zoom="29.5"
   inkscape:cx="4.028227"
   inkscape:cy="7.0084471"
   inkscape:window-x="0"
   inkscape:window-y="32"
   inkscape:window-maximized="1"
   inkscape:current-layer="svg12">
  <inkscape:grid
     type="xygrid"
     id="grid828" />
</sodipodi:namedview>

/&amp;gt;<path
   style="opacity:0.6;fill:#000000;stroke:#000000;stroke-width:2;stroke-linejoin:round;stroke-miterlimit:4;stroke-dasharray:none"
   id="path840"
   d="M 5.296875,9.9960938 3,12 V 10 H 2 v 5 H 3 V 13 L 5.296875,15.003906 6.0039062,14.296875 4.7070312,13 H 11.296875 L 10,14.296875 10.707031,15.003906 13,13 v 2 h 1 v -5 h -1 v 2 L 10.707031,9.9960938 10,10.703125 11.296875,12 H 4.7070312 l 1.296875,-1.296875 z"
   inkscape:connector-curvature="0"
   sodipodi:nodetypes="ccccccccccccccccccccccccc" />
<path
   d="M 5.296875,9.9960938 3,12 V 10 H 2 v 5 H 3 V 13 L 5.296875,15.003906 6.0039062,14.296875 4.7070312,13 H 11.296875 L 10,14.296875 10.707031,15.003906 13,13 v 2 h 1 v -5 h -1 v 2 L 10.707031,9.9960938 10,10.703125 11.296875,12 H 4.7070312 l 1.296875,-1.296875 z"
   id="path2"
   style="fill:#aee3f8;fill-opacity:1"
   inkscape:connector-curvature="0"
   sodipodi:nodetypes="ccccccccccccccccccccccccc" />
<path
   style="opacity:1;fill:#ffffff;fill-opacity:1;stroke:none;stroke-width:2;stroke-linecap:round;stroke-linejoin:round;stroke-miterlimit:4;stroke-dasharray:none;stroke-opacity:1"
   d="M 3,2 V 8 H 13 V 2 Z"
   id="rect820"
   inkscape:connector-curvature="0"
   sodipodi:nodetypes="ccccc" />
<path
   style="fill:#6d6d6d;fill-opacity:1"
   d="M 5,1 C 3,1 2,1 2,3 v 5 h 1 3 1 2 1 3 1 V 3 C 14,1 13,1 11,1 Z M 5,2 H 6 V 4 H 3 V 3 C 3,2 4.0000001,2 5,2 Z M 7,2 H 9 V 4 H 7 Z m 3,0 h 1 c 1,0 2,0 2,1 V 4 H 12 11 10 Z M 3,5 H 6 V 7 H 3 Z M 7,5 H 9 V 7 H 7 Z m 3,0 h 1 1 1 v 2 h -1 -1 -1 z"
   id="path2-3"
   inkscape:connector-curvature="0"
   sodipodi:nodetypes="ssccccccccsssscccssccccccsscccccccccccccccccccccccc" />
</svg>

<svg xmlns="http://www.w3.org/2000/svg" viewBox="0 0 16 16">/&amp;gt;<path d="M5.297 9.996L3 12v-2H2v5h1v-2l2.297 2.004.707-.707L4.707 13h6.59L10 14.297l.707.707L13 13v2h1v-5h-1v2l-2.293-2.004-.707.707L11.297 12h-6.59l1.297-1.297z" opacity=".6" stroke="#000" stroke-width="2" stroke-linejoin="round"/><path d="M5.297 9.996L3 12v-2H2v5h1v-2l2.297 2.004.707-.707L4.707 13h6.59L10 14.297l.707.707L13 13v2h1v-5h-1v2l-2.293-2.004-.707.707L11.297 12h-6.59l1.297-1.297z" fill="#aee3f8"/><path d="M3 2v6h10V2z" fill="#fff"/><path d="M5 1C3 1 2 1 2 3v5h12V3c0-2-1-2-3-2zm0 1h1v2H3V3c0-1 1-1 2-1zm2 0h2v2H7zm3 0h1c1 0 2 0 2 1v1h-3zM3 5h3v2H3zm4 0h2v2H7zm3 0h3v2h-3z" fill="#6d6d6d"/></svg>
